svgs/regular/rectangle-ad.svg

<svg xmlns="http://www.w3.org/2000/svg" viewBox="0 0 576 512"><!--! Font Awesome Pro 6.5.1 by @fontawesome - https://fontawesome.com License - https://fontawesome.com/license (Commercial License) Copyright 2023 Fonticons, Inc. --><path d="M64 80c-8.8 0-16 7.2-16 16V416c0 8.8 7.2 16 16 16H512c8.8 0 16-7.2 16-16V96c0-8.8-7.2-16-16-16H64zM0 96C0 60.7 28.7 32 64 32H512c35.3 0 64 28.7 64 64V416c0 35.3-28.7 64-64 64H64c-35.3 0-64-28.7-64-64V96zm229.5 77.3l72 144c5.9 11.9 1.1 26.3-10.7 32.2s-26.3 1.1-32.2-10.7L253.2 328H162.8l-5.4 10.7c-5.9 11.9-20.3 16.7-32.2 10.7s-16.7-20.3-10.7-32.2l72-144c4.1-8.1 12.4-13.3 21.5-13.3s17.4 5.1 21.5 13.3zM208 237.7L186.8 280h42.3L208 237.7zM392 256a24 24 0 1 0 0 48 24 24 0 1 0 0-48zm24-43.9V184c0-13.3 10.7-24 24-24s24 10.7 24 24v96 48c0 13.3-10.7 24-24 24c-6.6 0-12.6-2.7-17-7c-9.4 4.5-19.9 7-31 7c-39.8 0-72-32.2-72-72s32.2-72 72-72c8.4 0 16.5 1.4 24 4.1z"/></svg>

<svg xmlns="http://www.w3.org/2000/svg" viewBox="0 0 576 512"><!--! Font Awesome Pro 6.1.1 by @fontawesome - https://fontawesome.com License - https://fontawesome.com/license (Commercial License) Copyright 2022 Fonticons, Inc. --><path d="M301.5 317.3C307.4 329.1 302.6 343.5 290.7 349.5C278.9 355.4 264.5 350.6 258.5 338.7L253.2 328H162.8L157.5 338.7C151.5 350.6 137.1 355.4 125.3 349.5C113.4 343.5 108.6 329.1 114.5 317.3L186.5 173.3C190.6 165.1 198.9 160 207.1 160C217.1 160 225.4 165.1 229.5 173.3L301.5 317.3zM186.8 280H229.2L208 237.7L186.8 280zM416 184C416 170.7 426.7 160 440 160C453.3 160 464 170.7 464 184V328C464 341.3 453.3 352 440 352C433.4 352 427.4 349.3 423 344.1C413.6 349.5 403.1 352 392 352C352.2 352 320 319.8 320 280C320 240.2 352.2 208 392 208C400.4 208 408.5 209.4 416 212.1V184zM392 256C378.7 256 368 266.7 368 280C368 293.3 378.7 304 392 304C405.3 304 416 293.3 416 280C416 266.7 405.3 256 392 256zM0 96C0 60.65 28.65 32 64 32H512C547.3 32 576 60.65 576 96V416C576 451.3 547.3 480 512 480H64C28.65 480 0 451.3 0 416V96zM48 96V416C48 424.8 55.16 432 64 432H512C520.8 432 528 424.8 528 416V96C528 87.16 520.8 80 512 80H64C55.16 80 48 87.16 48 96z"/></svg>
